Obsidian/status/16s/battery-level-80-charging-symbolic.svg

<svg height="16" width="16" xmlns="http://www.w3.org/2000/svg"><path d="m5 6v7h3v-2l3-3v-2z" fill="#33d17a"/><g fill="#bebebe"><path d="m5.469.012c-.49 0-.796.215-1.032.455-.235.24-.437.556-.437 1.03v.503h-2v14h8v-2h-6v-10h2v-1.988h4v1.988h2v3h2v-5h-2v-.395l-.002-.027a1.622 1.622 0 0 0 -.416-1.014c-.236-.279-.62-.584-1.2-.552z"/><path d="m13 8v.0019531a1 1 0 0 0 -.042969 0 1 1 0 0 0 -.664062.2910157l-3.0000002 3.0000002a1 1 0 0 0 -.2929688.707031 1 1 0 0 0 0 .015625v.984375h1 2.103516l-.958985 1.404297a1 1 0 0 0 -.175781.564453v1h1a1 1 0 0 0 .699219-.285156l3.03125-2.96875a1 1 0 0 0 .298828-.714844h.001953v-1h-1-2.130859l.96289-1.4453125a1 1 0 0 0 .167969-.5546875 1 1 0 0 0 0-.0117188v-.9882812z"/></g></svg>

<?xml version="1.0" encoding="UTF-8" standalone="no"?>
<svg
   xmlns:dc="http://purl.org/dc/elements/1.1/"
   xmlns:cc="http://creativecommons.org/ns#"
   xmlns:rdf="http://www.w3.org/1999/02/22-rdf-syntax-ns#"
   xmlns:svg="http://www.w3.org/2000/svg"
   xmlns="http://www.w3.org/2000/svg"
   id="svg10"
   version="1.1"
   height="16"
   width="16">
  <metadata
     id="metadata16">
    <rdf:RDF>
      <cc:Work
         rdf:about="">
        <dc:format>image/svg+xml</dc:format>
        <dc:type
           rdf:resource="http://purl.org/dc/dcmitype/StillImage" />
        <dc:title></dc:title>
      </cc:Work>
    </rdf:RDF>
  </metadata>
  <defs
     id="defs14" />
  <path
     style="fill:#33d17a"
     class="success"
     d="m 5,6 v 7 H 8 V 11 L 11,8 V 6 Z"
     id="path2" />
  <path
     id="path4"
     fill="#bebebe"
     overflow="visible"
     font-family="sans-serif"
     font-weight="400"
     color="#bebebe"
     style="line-height:normal;font-variant-ligatures:normal;font-variant-position:normal;font-variant-caps:normal;font-variant-numeric:normal;font-variant-alternates:normal;font-feature-settings:normal;text-indent:0;text-align:start;text-decoration-line:none;text-decoration-style:solid;text-decoration-color:#000;text-transform:none;text-orientation:mixed;white-space:normal;shape-padding:0;isolation:auto;mix-blend-mode:normal;solid-color:#000;solid-opacity:1;marker:none"
     d="M5.469.012c-.49 0-.796.215-1.032.455C4.202.707 4 1.023 4 1.497V2H2v14h8v-2H4V4h2V2.012h4V4h2v3h2V2h-2v-.395l-.002-.027a1.622 1.622 0 00-.416-1.014c-.236-.279-.62-.584-1.2-.552z" />
  <path
     id="path6"
     d="M 13 8 L 13 8.0019531 A 1 1 0 0 0 12.957031 8.0019531 A 1 1 0 0 0 12.292969 8.2929688 L 9.2929688 11.292969 A 1 1 0 0 0 9 12 A 1 1 0 0 0 9 12.015625 L 9 13 L 10 13 L 12.103516 13 L 11.144531 14.404297 A 1 1 0 0 0 10.96875 14.96875 L 10.96875 15.96875 L 11.96875 15.96875 A 1 1 0 0 0 12.667969 15.683594 L 15.699219 12.714844 A 1 1 0 0 0 15.998047 12 L 16 12 L 16 11 L 15 11 L 12.869141 11 L 13.832031 9.5546875 A 1 1 0 0 0 14 9 A 1 1 0 0 0 14 8.9882812 L 14 8 L 13 8 z "
     style="line-height:normal;font-variant-ligatures:normal;font-variant-position:normal;font-variant-caps:normal;font-variant-numeric:normal;font-variant-alternates:normal;font-feature-settings:normal;text-indent:0;text-align:start;text-decoration-line:none;text-decoration-style:solid;text-decoration-color:#000;text-transform:none;text-orientation:mixed;white-space:normal;shape-padding:0;isolation:auto;mix-blend-mode:normal;solid-color:#000;solid-opacity:1;marker:none;opacity:1.0;fill:#bebebe;fill-opacity:1" />
</svg>
